X: 9605
T: Dawn Chorus, The
R: jig
M: 6/8
K: Gmajor
|:B3 BAB|dBB BAG|AA[FD] ABc|B3 AGE|
B3 BAB|dBB BAG|EFG BEB|1 GEE E G/F/E:|2 GEE E d/e/f]
|:g3 eag|f3 dea|g3 a3|bge eef|
ggf gfe|dd^c def|ged B3|1 dBA GBe:|2 dBA G3||
P: Variations
|:DGA BAG|d[dG]c BAG|AAc BAc|B3 AGE|
G3 B3|d3 BAG|ABc B3|1 GEE E G/F/E:|2 GEE E d/e/f]
|:gbg eag|f3 de(g|g)fg aga|bge eef|
ggb age|dd^c def|ged B3|1 dBA GBe:|2 dBA G3||

